X:408
%%etbk:tnset id:120,pos:1,rep:3x,ant:
%%etbk:wsite http://www.thesession.org/tunes/display/8541
%%etbk:skill ?
%%etbk:pldat 2013-11-23T16:36,2013-11-18T18:18,2013-10-07T18:34,2013-05-22T16:28
T:Tauer, The
Z: Piano Box Version by Martin Fleischmann
H: Created 2013-02-19 /  Last Modified 2013-02-19
M: 2/4
L: 1/8
R: polka
K: Dmix
|: "D"!3!A!1!D !2!F!3!A | !5!d!4!^c !3!A!4!B | "A"!5!c>B c!1!E | !1!EF !3!G!1!E | "D"!3!A!1!D !2!F!3!A | !5!d!4!^c !3!A!4!B | "A"!5!c>B c!1!E | "D"{G}!2!E!1!D D2:|
|: "D"!3!f>{g}f e!1!d | "A"!3!^c!1!A A!2!e | "D"!3!f>{g}f ef | "A"!5!ag !2!e!3!=f | "D"!3!f>{g}f e!1!d | "A"!3!^c!1!A !3!A!4!B | !5!c>B c!1!E | "D"{G}!2!E!1!D D2:|
